X: 5
T: Acaba Şen misin
C: Bîmen Şen
O: Turkey
F: http://compmusic.upf.edu/node/140
N: hicaz--sarki--curcuna--acaba_sen_misin--bimen_sen
N: makam= hicaz
N: form= sarki
N: usul= curcuna = 10/8
M: 10/8
L: 1/16
K: C _7/8B ^f ^c 
Q: 1/4=208
%%MIDI tuningsystem comma53
d8-d2d2 e2c4z2  | B8-B2B2 c2A4z2  | =f2e2 d2d2 c2c2 B2B2 A2G2  | 
w:  ARANAĞME  |   |   | 
d18z2  | =f8-=f2f2 g2e4z2  | d8-d2d2 e2c4z2  | \
w:   |   |   | 
B2A2 G2e2 d2c2 B2B4A2  | 
w:   | 
A4 =f2e2 d2c2 B2A4z2  | d8-d2d2 e2c4z2  | \
w:   |  ARANAĞME  | 
B8-B2B2 c2A4z2  | =f2e2 d2d2 c2c2 B2B2 A2G2  | 
w:   |   | 
d18z2  | =f8-=f2f2 g2e4z2  | d8-d2d2 e2c4z2  | \
w:   |   |   | 
B2A2 G2e2 d2c2 B2B4A2  | 
w:   | 
A4 =f2e2 d2c2 B2A4z2  | z4 A2B2 A2G8z2  | \
w:   |  A ca *  ba   | 
d4 c2d4e8-e2  | z4 e2f4g4g2 f2e2  | 
w:  şen  *  mi sin   |  ke de rin  var   | 
e4 =f2e2 d2c2 B2A6  | z4 A2B2 A2G8z2  | \
w:  mı    |  A ca *  ba   | 
d4 c2d4e8-e2  | z4 a2a2 g2g2 f2f4e2  | 
w:  şen  *  mi sin   |  ke de *  rin  *  var   | 
e4 g2f2 e2f2 g2a6  | z4 g2a4a8g2  | g6g4f2 e2d6  | \
w:  mı   SAZ  |  Ne  ka dar   |  dert li yim   | 
z4 g2g2 =f2f2 e2e4d2  | 
w:  ha be *  rin  *  var   | 
g8-g2=f2 e2d2 c=Bc2  | z4 d2e4e8d2  | \
w:  mı    |  Ne  ka dar   | 
c6d4c2 B2A6  | z4 A2B2 A2G4c2 B2A2  | 
w:  dert li yim   |  ha be *  rin  var   | 
A4 g2f2 e2f2 g2a6  | z4 g2a4a8-a2  | \
w:  mı   SAZ  |  Ya nın da   | 
=b6b2 a2a2 g2a6  | z4 g2a4a4g4f2  | 
w:  ba na  *  da   |  bir  ye rin  var   | 
a4 g2f4g4a6  | z4 a2=b4b8a2  | a4 =b2a2 g2f2 e2e6  | \
w:  mı    |  Ya nın da   |  ba *  na  *  da   | 
z4 a2a2 g2g2 f2f4e2  | 
w:  bir  ye *  rin  *  var   | 
e4 g2f2 e2f2 g2a6  | z4 g2a4a8g2  | g6g4f2 e2d6  | \
w:  mı   SAZ  |  Ne  ka dar   |  dert li yim   | 
z4 g2g2 =f2f2 e2e4d2  | 
w:  ha be *  rin  *  var   | 
g8-g2=f2 e2d2 c=Bc2  | z4 d2e4e8d2  | \
w:  mı    |  Ne  ka dar   | 
c6d4c2 B2A6  | z4 A2B2 A2G4c2 B2A2  | 
w:  dert li yim   |  ha be *  rin  var   | 
A4 |
w:  mı    | 


